X: 35223
T: Rosalie's
R: waltz
M: 3/4
K: Gmajor
|:GA|G2DEGA|B2GFBc|d3BG2|A3Bd2|
e2efed|BA3GA|B3dB2|A4GF|
E3GE2|F3GF2|A2BAG2|d3Bd2|
e2efed|BA3GA|B3GG2|G4:|
|:FG|E3GFG|D3GFG|B3GFG|d3BAG|
E3GFG|D3GFG|A6|B3cBA|
E3GFG|D3GFG|A2BAG2|d3Bd2|
e2efed|BA3GA|B3GG2|G4:|

